X: 1
T: An Mhaighdean Mhara
M: 3/4
L: 1/8
R: waltz
K: Dmaj
A2 | d3 e fg | f4 ec | d4 cB | A4 de | 
f3 e fg | a4 de | f4 ef | g4 a2 |
a3 g fg | f4 ec | d4 cB | A4 FG |
A3 B cd | e3 f (3gfe | f4 e2 | d6 |]
